Sources/FrostedUI/Resources/Icons.xcassets/playCircle32.imageset/play-circle-32.svg

<svg width="32" height="32" viewBox="0 0 32 32" fill="none" xmlns="http://www.w3.org/2000/svg" data-fui-icon="true">
  <path
    d="M16 2.75C23.3178 2.75 29.25 8.68223 29.25 16C29.25 23.3178 23.3178 29.25 16 29.25C8.68223 29.25 2.75 23.3178 2.75 16C2.75 8.68223 8.68223 2.75 16 2.75ZM16 4.25C9.51065 4.25 4.25 9.51065 4.25 16C4.25 22.4893 9.51065 27.75 16 27.75C22.4893 27.75 27.75 22.4893 27.75 16C27.75 9.51065 22.4893 4.25 16 4.25ZM11.25 12.1875C11.2503 10.2151 13.4276 9.02022 15.0918 10.0791L21.083 13.8906C22.6265 14.873 22.6265 17.127 21.083 18.1094L15.0918 21.9209C13.4276 22.9798 11.2503 21.7849 11.25 19.8125V12.1875ZM14.2871 11.3447C13.6215 10.9212 12.7503 11.3987 12.75 12.1875V19.8125C12.7503 20.6013 13.6215 21.0788 14.2871 20.6553L20.2773 16.8438C20.8948 16.4508 20.8948 15.5492 20.2773 15.1562L14.2871 11.3447Z"
    fill="currentColor"
  />
</svg>

<svg xmlns="http://www.w3.org/2000/svg" width="32" height="32" fill="none" data-fui-icon="true" viewBox="0 0 32 32"><path fill="currentColor" d="M16 2.75c7.318 0 13.25 5.932 13.25 13.25S23.318 29.25 16 29.25 2.75 23.318 2.75 16 8.682 2.75 16 2.75m0 1.5C9.51 4.25 4.25 9.51 4.25 16S9.51 27.75 16 27.75 27.75 22.49 27.75 16 22.49 4.25 16 4.25m-4.75 7.938c0-1.973 2.178-3.168 3.842-2.109l5.991 3.812c1.544.982 1.544 3.236 0 4.218l-5.991 3.812c-1.664 1.059-3.842-.136-3.842-2.108zm3.037-.843a1 1 0 0 0-1.537.842v7.626a1 1 0 0 0 1.537.842l5.99-3.811a1 1 0 0 0 0-1.688z"/></svg>
